X: 1
T: King Of The Clans
M: 4/4
L: 1/8
R: reel
K: Gmaj
|:^c|{c}d2BG Bdge|dgdB {B}AGEG|DGBG dGBG|=cege dcBc|
dGBd gdBd|gabg {b}agef|~g3e dBge|1 dBAG EGG:|2 dBAc BGG|
|:f|{f}g2fg egdf|gdBG {B}AGEG|DGBG dGBG|cege ~d3f|
[1 {f}g2fg egdf|gdBG {B}AGEG|DGBd e=cge|dBAG EGG:|
[2 gabg efge|dBgB {B}AGEG|DGBd e=cge|dBAc BGG||
